Dominus_Dark_Funeral/22/apps/wordpress.svg

<svg xmlns="http://www.w3.org/2000/svg" width="24" height="24" version="1"><path d="M12 .991A11.007 11.007 0 0 0 .993 12.001 11.007 11.007 0 0 0 12 23.01 11.007 11.007 0 0 0 23.007 12 11.007 11.007 0 0 0 12 .991zm0 .663a10.348 10.348 0 0 1 7.511 3.228h-.59c-1.028 0-1.762.88-1.762 1.836 0 .855.49 1.345 1.028 2.2.416.684.879 1.59.879 2.887 0 .88-.342 1.931-.808 3.378l-1.051 3.475L13.44 7.475l1.467-.024c.537-.074.49-1.345-.074-1.321 0 0-1.955.148-3.06.148-1.024 0-3.178-.148-3.178-.148-.588-.024-.66 1.297-.098 1.321l1.565.024 1.616 4.402-2.275 6.852-3.817-11.18 1.515-.098c.565-.074.49-1.271-.047-1.247 0 0-2.029.122-3.13.122h-.586A10.348 10.348 0 0 1 12 1.654zm9.05 5.307a10.348 10.348 0 0 1 1.298 5.04 10.348 10.348 0 0 1-4.892 8.804l2.98-8.682c.611-1.467.611-2.69.611-3.742V6.985zm-18.42.66l-.17.44 4.77 13.112a10.348 10.348 0 0 0 .16.075 10.348 10.348 0 0 0 .82.365 10.348 10.348 0 0 0 .977.344l3.009-8.708 3.107 8.56 1.099-.44a10.348 10.348 0 0 1-1.1.44 10.348 10.348 0 0 1-3.302.54 10.348 10.348 0 0 1-2.813-.392 10.348 10.348 0 0 1-1.797-.71 10.348 10.348 0 0 1-.16-.074 10.348 10.348 0 0 1-5.578-9.172 10.348 10.348 0 0 1 .98-4.38zm14.312 13.454v.027l-.54.244a10.348 10.348 0 0 0 .54-.268z" fill="#e6e6e6"/></svg>

<?xml version="1.0" encoding="UTF-8" standalone="no"?>
<svg
   xmlns:dc="http://purl.org/dc/elements/1.1/"
   xmlns:cc="http://creativecommons.org/ns#"
   xmlns:rdf="http://www.w3.org/1999/02/22-rdf-syntax-ns#"
   xmlns:svg="http://www.w3.org/2000/svg"
   xmlns="http://www.w3.org/2000/svg"
   xmlns:sodipodi="http://sodipodi.sourceforge.net/DTD/sodipodi-0.dtd"
   xmlns:inkscape="http://www.inkscape.org/namespaces/inkscape"
   width="24"
   height="24"
   version="1"
   id="svg4"
   sodipodi:docname="wordpress.svg"
   inkscape:version="0.92.4 (5da689c313, 2019-01-14)">
  <metadata
     id="metadata10">
    <rdf:RDF>
      <cc:Work
         rdf:about="">
        <dc:format>image/svg+xml</dc:format>
        <dc:type
           rdf:resource="http://purl.org/dc/dcmitype/StillImage" />
        <dc:title></dc:title>
      </cc:Work>
    </rdf:RDF>
  </metadata>
  <defs
     id="defs8" />
  <sodipodi:namedview
     pagecolor="#ffffff"
     bordercolor="#666666"
     borderopacity="1"
     objecttolerance="10"
     gridtolerance="10"
     guidetolerance="10"
     inkscape:pageopacity="0"
     inkscape:pageshadow="2"
     inkscape:window-width="1138"
     inkscape:window-height="480"
     id="namedview6"
     showgrid="false"
     inkscape:zoom="9.8333333"
     inkscape:cx="1.0677966"
     inkscape:cy="12"
     inkscape:window-x="0"
     inkscape:window-y="25"
     inkscape:window-maximized="0"
     inkscape:current-layer="svg4" />
  <path
     d="M 12,0.991 A 11.007,11.007 0 0 0 0.993,12.001 11.007,11.007 0 0 0 12,23.01 11.007,11.007 0 0 0 23.007,12 11.007,11.007 0 0 0 12,0.991 Z m 0,0.663 a 10.348,10.348 0 0 1 7.511,3.228 h -0.59 c -1.028,0 -1.762,0.88 -1.762,1.836 0,0.855 0.49,1.345 1.028,2.2 0.416,0.684 0.879,1.59 0.879,2.887 0,0.88 -0.342,1.931 -0.808,3.378 L 17.207,18.658 13.44,7.475 14.907,7.451 c 0.537,-0.074 0.49,-1.345 -0.074,-1.321 0,0 -1.955,0.148 -3.06,0.148 C 10.749,6.278 8.595,6.13 8.595,6.13 8.007,6.106 7.935,7.427 8.497,7.451 l 1.565,0.024 1.616,4.402 L 9.403,18.729 5.586,7.549 7.101,7.451 C 7.666,7.377 7.591,6.18 7.054,6.204 c 0,0 -2.029,0.122 -3.13,0.122 H 3.338 A 10.348,10.348 0 0 1 12,1.654 Z m 9.05,5.307 a 10.348,10.348 0 0 1 1.298,5.04 10.348,10.348 0 0 1 -4.892,8.804 l 2.98,-8.682 c 0.611,-1.467 0.611,-2.69 0.611,-3.742 V 6.985 Z M 2.63,7.621 2.46,8.061 7.23,21.173 a 10.348,10.348 0 0 0 0.16,0.075 10.348,10.348 0 0 0 0.82,0.365 10.348,10.348 0 0 0 0.977,0.344 l 3.009,-8.708 3.107,8.56 1.099,-0.44 a 10.348,10.348 0 0 1 -1.1,0.44 A 10.348,10.348 0 0 1 12,22.349 10.348,10.348 0 0 1 9.187,21.957 10.348,10.348 0 0 1 7.39,21.247 10.348,10.348 0 0 1 7.23,21.173 10.348,10.348 0 0 1 1.652,12.001 10.348,10.348 0 0 1 2.632,7.621 Z m 14.312,13.454 v 0.027 l -0.54,0.244 a 10.348,10.348 0 0 0 0.54,-0.268 z"
     id="path2"
     inkscape:connector-curvature="0"
     style="fill:#e6e6e6" />
</svg>
